X: 5
T: Dark Girl Dressed In Blue
R: polka
M: 2/4
L: 1/8
K: Ador
|: A>G FG | A/B/c/A/ BG | A>G FG | A/d/d/^c/ d2 |
A>G FG | A/B/c/A/ BG | Ad ^c/d/e | [1 d2 d2 :| [2 d2 d-d/e/ |]
|: fa g/f/e | d>B Ae | fa g/f/e | d2 d-d/e/ |
fa g/f/e | d>B AB | cB AF | GA/B/ cB :|


Tune 1534	Setting 1534

